!!!COM: Mozart
!!!OTL: 12 Variations on "Ah Vous dirais-je, Maman" for the Piano
!!!Variation: 5 b
**function	**harm	**kern	**kern
*	*	*clefF4	*clefG2
*	*	*k[]	*k[]
*M2/4	*M2/4	*M2/4	*M2/4
*C:	*C:	*C:	*C:
=129	=129	=129	=129
2D	2Ic	8r	4.gg
.	.	(8e	.
.	.	4G)	.
.	.	.	(8gg
=130	=130	=130	=130
2D	2V7	8r	4.ff#)
.	.	(8d	.
.	.	4G)	.
.	.	.	(8ff
=131	=131	=131	=131
2D	2Ic	8r	4.ee)
.	.	(8c	.
.	.	4G)	.
.	.	.	(8ee-
=132	=132	=132	=132
2D	2V	8r	4dd)
.	.	(8B	.
.	.	4G)	8r
.	.	.	8g
=133	=133	=133	=133
2D	2Ic	8r	4.gg
.	.	(8e	.
.	.	4G)	.
.	.	.	(16ggLL
.	.	.	16ff#JJ
=134	=134	=134	=134
2D	2V7	8r	4.ff)
.	.	(8d	.
.	.	4G)	.
.	.	.	(16ffLL
.	.	.	16eeJJ
=135	=135	=135	=135
2D	2ic	8r	4.ee-)
.	.	(8c	.
.	.	4G)	.
.	.	.	(16ff#LL
.	.	.	16ggJJ
=136	=136	=136	=136
2D	2V7	8r	4.dd)
.	.	(8B	.
.	.	4G)	.
.	.	.	(16ffLL
.	.	.	16ddJJ
*-	*-	*-	*-
